X: 177
T:Twenty -Ninth of May
M:4/4
L:1/8
A:England
K:D
a2 f2 g2 f2| edcB A2 f2|g2 B2 c3 B/2c/2| d2 A2 F2 ED|a2 f2 g2 f2|edcB A2 f2|g2 B2 c3 B/2c/2| d2 A2 F2 ED:|
|:F2 A4 GF|G2 B4 B2|cd e2 cd e2|c2 Bc A2 de| f2 ef d2 ef| g2 fg e2 fg|a2 B2 c3 B/2c/2| d2 A2 F2 ED:|

